X:1
T:Thetford
T:G Major              Hezekiah Moors, 1809
T:Counter by B. C. Johnston, 2018.
T:Isaac Watts, 1719 (Psalm 93)                              668. 668.
T:Treble-Tenor-Bass Transcribed from Province Harmony, 1809;
%%score [ 1 2 3 4 ]
L:1/8
Q:1/4=90
M:2/4
K:G
V:1 treble nm="Tr." snm="Tr."
V:2 treble nm="C." snm="C."
V:3 treble-8 nm="T." snm="T."
V:4 bass nm="B." snm="B."
V:1
"_1. The  Lord  Jehovah  reigns,      And   royal   state   maintains,      His  head with  awful   glo–ries  crowned;     Arrayed  in      robes of\n2.  Upheld by thy commands,      The world  se –cure –ly stands;     And skies  and stars o –bey   thy     word:     Thy throne was fixed on" D2 | %1
 G2 B2 | AG F2 | G4- | G2 A2 | B2 A2 | G2 e2 | d4- | d2 B2 | G2 c/d/e | d2 g2 | c2 A/B/c | B4 | %13
 z2 B2 | G2 G/A/B | A2 G2 | %16
"_1. light,              Be – girt  with    sovereign   might,      And   rays    of       ma   –  jes     –    ty       a –  round.\n2. high               Be – fore   the     star – ry      sky;          E   –  ter  –  nal       is        thy          king –dom, Lord." (G F3-) | %17
 F2 F2 | G2 B/c/d | e2 d2 | ^c4- | c2 d2 | Bc dg | dc BA/G/ | BA GF | G4 |] %26
V:2
"_3. In vain the noi – sy  crowd,     Like  billows  fierce  and loud,     Against   thine    empire  rage  and    roar;       In  vain,  with    angry" G2 | %1
 B2 G2 | cB A2 | G4 | z2 D2 | G2 A/G/F | G2 A2 | A4 | z2 B2 | B2 B/A/G | F2 G2 | E2 A/G/F | G4 | %13
 z2 B2 | G2 E/F/G | A2 B2 | %16
"_3. spite,            The   sur  –  ly         nations    fight,        And  dash   like    waves    a    –     gainst   the   shore." (B A3) | %17
 z2 A2 | B2 B/A/B | c2 B2 | A4 | z2 F2 | BA BG | Bc BA/G/ | BA BA | G4 |] %26
V:3
"_4. Let floods and nations rage,    And  all   their  powers engage;      Let  swel – ling  tides  assault  the     sky;     The  ter – rors    of  thy\n5. Thy  pro–mi–ses  are   true,     Thy  grace  is    e  –  ver   new:      There fixed, thy church shall ne'er remove;   Thy  saints with  ho –ly" G2 | %1
 B2 G2 | c2 A2 | B4 | z2 d2 | G2 A/B/c | B2 ^c2 | d4 | z2 d2 | B2 e/f/g | f2 d2 | e2 f2 | g4 | %13
 z2 d2 | e2 e/f/g | c2 B2 | %16
"_4. frown           Shall  beat  their    madness   down:      Thy  throne  for      ev   –   er         stands    on    high.\n5. fear              Shall   in     thy      courts  ap – pear,       And  sing    thine   ev   –   er     –     las  –  ting   love." (B A3) | %17
 z2 A2 | B2 G/A/B | c2 d2 | e4 | z2 f2 | dc BG | Bc de/g/ | dc BA | G4 |] %26
V:4
 G,2 | G,2 G,2 | C,2 D,2 | G,,4- | G,,2 D,2 | G,2 D,2 | G,2 A,2 | D,4- | D,2 G,2 | G,2 G,2 | %10
 D2 B,2 | C2 D2 | G,4 | z2 G,2 | E,2 E,2 | C,2 G,2 | %16
"________________________________________________________________\nEdited by B. C. Johnston, 2018\n   1. Grace eighth notes replaced with normal eighth notes in measure 17.\n   2. Counter part written." D,4- | %17
 D,2 D,2 | G,2 G,2 | C2 B,2 | A,4- | A,2 D,2 | G,2 G,2 | G,2 B,,C, | D,2 D,2 | G,,4 |] %26

